X:1
T:Kost ar c'hoad
C:Trad., appris de Dominique Jouve, fichier ABC par Bernard Loffet
L:1/8
Q:410
M:9/8
K:C
|: [G2G,,2]G [A2G,2]B [d2G,2]c | [B3G,,3] [A2D,2]G [A2D,2]B | \
M:6/8
 [c3C,,3] [d3D,,3] | \
M:9/8
 [G2G,,2]G [A2G,2]B [d2G,2]c | [B3G,,3] [A2D,2]G [A2D,2]B | \
M:6/8
 [c3C,,3] [c3C,3] :| \
M:9/8
|: [e2C,,2]g [f2G,2]e [f2F,2]g | [e2C,,2]c [c2C,2]c [c2C,2]c | \
M:6/8
 [cF,,]Bc [d3G,3] | \
M:9/8
 [e2C,,2]g [f2G,2]e [f2F,2]g | [e2C,,2]G [G2C,2]G [A2G,2]B | \
M:6/8
 [c3C,,3] [c3C,3] :| \
W:Created with TablEdit http://www.tabledit.com/ by Bernard Loffet
